actions/16/edit-select-all.svg

<?xml version="1.0" encoding="UTF-8"?>
<!-- Created with Inkscape (http://www.inkscape.org/) -->
<svg width="16" height="16" version="1.0" xmlns="http://www.w3.org/2000/svg" xmlns:cc="http://creativecommons.org/ns#" xmlns:dc="http://purl.org/dc/elements/1.1/" xmlns:rdf="http://www.w3.org/1999/02/22-rdf-syntax-ns#" xmlns:xlink="http://www.w3.org/1999/xlink">
	<metadata>
		<rdf:RDF>
			<cc:Work rdf:about="">
				<dc:format>image/svg+xml</dc:format>
				<dc:type rdf:resource="http://purl.org/dc/dcmitype/StillImage"/>
				<dc:title/>
			</cc:Work>
		</rdf:RDF>
	</metadata>
	<defs>
		<radialGradient id="b" cx="-9413.5" cy="5036.7" r="9" gradientTransform="matrix(2.1489 0 0 1.91 20237 -9615.2)" gradientUnits="userSpaceOnUse">
			<stop stop-color="#213851" stop-opacity=".9059" offset="0"/>
			<stop stop-color="#27303a" stop-opacity="0" offset="1"/>
		</radialGradient>
		<radialGradient id="a" cx="7.3461" cy="8.9614" r="6.6816" gradientTransform="matrix(0 2.2917 -2.7968 0 33.063 -11.835)" gradientUnits="userSpaceOnUse">
			<stop stop-color="#ffffff" stop-opacity=".74858" offset="0"/>
			<stop stop-color="#ffffff" stop-opacity=".60511" offset="1"/>
		</radialGradient>
	</defs>
	<path d="m1 1v1 1h1v-1h1v-1h-1zm3 0v1h2v-1zm3 0v1h2v-1zm3 0v1h2v-1zm3 0v1h1v1h1v-1-1h-1zm-12 3v2h1v-2zm13 0v2h1v-2zm-9 1v6h6v-6zm-4 2v2h1v-2zm13 0v2h1v-2zm-13 3v2h1v-2zm13 0v2h1v-2zm-13 3v2h1 1v-1h-1v-1zm13 0v1h-1v1h1 1v-1-1zm-10 1v1h2v-1zm3 0v1h2v-1zm3 0v1h2v-1z" color="#000000" fill="#090d11" fill-opacity=".76621" style="paint-order:normal"/>
	<path d="m1 1v1 1h1v-1h1v-1h-1-1zm3 0v1h2v-1h-2zm3 0v1h2v-1h-2zm3 0v1h2v-1h-2zm3 0v1h1v1h1v-1-1h-1-1zm-12 3v2h1v-2h-1zm13 0v2h1v-2h-1zm-9 1v6h6v-6h-6zm-4 2v2h1v-2h-1zm13 0v2h1v-2h-1zm-13 3v2h1v-2h-1zm13 0v2h1v-2h-1zm-13 3v2h1 1v-1h-1v-1h-1zm13 0v1h-1v1h1 1v-1-1h-1zm-10 1v1h2v-1h-2zm3 0v1h2v-1h-2zm3 0v1h2v-1h-2z" color="#000000" fill="url(#b)" fill-opacity=".75328" style="font-variant-east_asian:normal;paint-order:normal"/>
	<path d="m1 0v1h2v-1h-2zm0 1h-1v2h1v-2zm3-1v1h2v-1h-2zm3 0v1h2v-1h-2zm3 0v1h2v-1h-2zm3 0v1h2v-1h-2zm2 1v2h1v-2h-1zm-15 3v2h1v-2h-1zm4 0v8h8v-8h-8zm11 0v2h1v-2h-1zm-10 1h6v6h-6v-6zm-5 2v2h1v-2h-1zm15 0v2h1v-2h-1zm-15 3v2h1v-2h-1zm15 0v2h1v-2h-1zm-15 3v2h1v-2h-1zm1 2v1h2v-1h-2zm14-2v2h1v-2h-1zm0 2h-2v1h2v-1zm-11 0v1h2v-1h-2zm3 0v1h2v-1h-2zm3 0v1h2v-1h-2z" color="#000000" fill="url(#a)" fill-opacity=".99858" style="font-variant-east_asian:normal;paint-order:normal"/>
</svg>

<?xml version="1.0" encoding="UTF-8" standalone="no"?>
<!-- Created with Inkscape (http://www.inkscape.org/) -->

<svg
   xmlns:dc="http://purl.org/dc/elements/1.1/"
   xmlns:cc="http://creativecommons.org/ns#"
   xmlns:rdf="http://www.w3.org/1999/02/22-rdf-syntax-ns#"
   xmlns:svg="http://www.w3.org/2000/svg"
   xmlns="http://www.w3.org/2000/svg"
   xmlns:xlink="http://www.w3.org/1999/xlink"
   xmlns:sodipodi="http://sodipodi.sourceforge.net/DTD/sodipodi-0.dtd"
   xmlns:inkscape="http://www.inkscape.org/namespaces/inkscape"
   version="1.0"
   width="16"
   height="16"
   id="svg2"
   inkscape:version="0.48.3.1 r9886"
   sodipodi:docname="edit-select-all.svg">
  <sodipodi:namedview
     pagecolor="#ffffff"
     bordercolor="#666666"
     borderopacity="1"
     objecttolerance="10"
     gridtolerance="10"
     guidetolerance="10"
     inkscape:pageopacity="0"
     inkscape:pageshadow="2"
     inkscape:window-width="1920"
     inkscape:window-height="1033"
     id="namedview32"
     showgrid="true"
     inkscape:zoom="45.254835"
     inkscape:cx="7.6558209"
     inkscape:cy="7.5973444"
     inkscape:window-x="-10"
     inkscape:window-y="25"
     inkscape:window-maximized="1"
     inkscape:current-layer="svg2"
     inkscape:snap-bbox="true"
     inkscape:bbox-paths="true"
     inkscape:bbox-nodes="true"
     inkscape:snap-bbox-edge-midpoints="true"
     inkscape:snap-bbox-midpoints="true"
     inkscape:object-paths="true"
     inkscape:snap-intersection-paths="true"
     inkscape:object-nodes="true"
     inkscape:snap-smooth-nodes="true"
     inkscape:snap-midpoints="true"
     inkscape:snap-object-midpoints="true"
     inkscape:snap-center="true"
     fit-margin-top="0"
     fit-margin-left="0"
     fit-margin-right="0"
     fit-margin-bottom="0">
    <inkscape:grid
       type="xygrid"
       id="grid3218"
       empspacing="5"
       visible="true"
       enabled="true"
       snapvisiblegridlinesonly="true"
       originx="-11px"
       originy="18px" />
  </sodipodi:namedview>
  <metadata
     id="metadata11">
    <rdf:RDF>
      <cc:Work
         rdf:about="">
        <dc:format>image/svg+xml</dc:format>
        <dc:type
           rdf:resource="http://purl.org/dc/dcmitype/StillImage" />
        <dc:title />
      </cc:Work>
    </rdf:RDF>
  </metadata>
  <defs
     id="defs4">
    <linearGradient
       x1="20.534313"
       y1="-4.3515615"
       x2="26.152533"
       y2="1.2666581"
       id="linearGradient6693-5"
       xlink:href="#linearGradient3587-6-5-1-5-2"
       gradientUnits="userSpaceOnUse"
       gradientTransform="matrix(0.7071068,0.7071068,-0.7071068,0.7071068,-9.87868,-7.4350298)" />
    <linearGradient
       id="linearGradient3587-6-5-1-5-2">
      <stop
         id="stop3589-9-2-8-5-0"
         style="stop-color:#000000;stop-opacity:1"
         offset="0" />
      <stop
         id="stop3591-7-4-3-0-1"
         style="stop-color:#646464;stop-opacity:1"
         offset="1" />
    </linearGradient>
    <linearGradient
       id="linearGradient3587-6-5-1-5-2-1">
      <stop
         id="stop3589-9-2-8-5-0-2"
         style="stop-color:#000000;stop-opacity:1"
         offset="0" />
      <stop
         id="stop3591-7-4-3-0-1-4"
         style="stop-color:#646464;stop-opacity:1"
         offset="1" />
    </linearGradient>
    <linearGradient
       id="linearGradient3732-77-1">
      <stop
         id="stop3734-3-1"
         style="stop-color:#000000;stop-opacity:1"
         offset="0" />
      <stop
         id="stop3736-71-8"
         style="stop-color:#000000;stop-opacity:0"
         offset="1" />
    </linearGradient>
    <linearGradient
       id="linearGradient3788-3">
      <stop
         id="stop3790-8"
         style="stop-color:#ffffff;stop-opacity:1"
         offset="0" />
      <stop
         id="stop3792-3"
         style="stop-color:#ffffff;stop-opacity:0"
         offset="1" />
    </linearGradient>
    <linearGradient
       inkscape:collect="always"
       xlink:href="#linearGradient3788-3"
       id="linearGradient3210"
       gradientUnits="userSpaceOnUse"
       gradientTransform="matrix(1.1333334,0,0,0.99999997,-27.914124,-5.7118643)"
       x1="8.1313992"
       y1="19.049677"
       x2="8.1313992"
       y2="15.935893" />
    <linearGradient
       inkscape:collect="always"
       xlink:href="#linearGradient3732-77-1"
       id="linearGradient3212"
       gradientUnits="userSpaceOnUse"
       gradientTransform="matrix(0.8666667,0,0,0.73333335,-25.780791,-13.354803)"
       x1="8.1313992"
       y1="19.049677"
       x2="8.1313992"
       y2="15.935893" />
    <linearGradient
       inkscape:collect="always"
       xlink:href="#linearGradient3587-6-5-1-5-2-1"
       id="linearGradient3214"
       gradientUnits="userSpaceOnUse"
       gradientTransform="matrix(0.7071068,0.7071068,-0.7071068,0.7071068,-37.726138,-10.146894)"
       x1="20.534313"
       y1="-4.3515615"
       x2="26.152533"
       y2="1.2666581" />
    <linearGradient
       id="linearGradient3587-6-5-1-5-2-7">
      <stop
         offset="0"
         style="stop-color:#000000;stop-opacity:1"
         id="stop3589-9-2-8-5-0-9" />
      <stop
         offset="1"
         style="stop-color:#646464;stop-opacity:1"
         id="stop3591-7-4-3-0-1-5" />
    </linearGradient>
    <linearGradient
       id="linearGradient3732-77-2"
       inkscape:collect="always">
      <stop
         id="stop3734-3-2"
         offset="0"
         style="stop-color:#000000;stop-opacity:1;" />
      <stop
         id="stop3736-71-0"
         offset="1"
         style="stop-color:#000000;stop-opacity:0;" />
    </linearGradient>
    <linearGradient
       inkscape:collect="always"
       id="linearGradient3788-8">
      <stop
         style="stop-color:#ffffff;stop-opacity:1;"
         offset="0"
         id="stop3790-7" />
      <stop
         style="stop-color:#ffffff;stop-opacity:0;"
         offset="1"
         id="stop3792-4" />
    </linearGradient>
    <linearGradient
       inkscape:collect="always"
       xlink:href="#linearGradient3788-8"
       id="linearGradient3298"
       gradientUnits="userSpaceOnUse"
       gradientTransform="matrix(1.1333334,0,0,0.99999997,-5.0666667,42)"
       x1="8.1313992"
       y1="19.049677"
       x2="8.1313992"
       y2="15.935893" />
    <linearGradient
       inkscape:collect="always"
       xlink:href="#linearGradient3732-77-2"
       id="linearGradient3300"
       gradientUnits="userSpaceOnUse"
       gradientTransform="matrix(0.8666667,0,0,0.73333335,-2.9333334,-61.066667)"
       x1="8.1313992"
       y1="19.049677"
       x2="8.1313992"
       y2="15.935893" />
    <linearGradient
       inkscape:collect="always"
       xlink:href="#linearGradient3587-6-5-1-5-2-7"
       id="linearGradient3302"
       gradientUnits="userSpaceOnUse"
       gradientTransform="matrix(0.7071068,0.7071068,-0.7071068,0.7071068,-14.87868,37.56497)"
       x1="20.534313"
       y1="-4.3515615"
       x2="26.152533"
       y2="1.2666581" />
    <linearGradient
       x1="20.534313"
       y1="-4.3515615"
       x2="26.152533"
       y2="1.2666581"
       id="linearGradient6693-5-9"
       xlink:href="#linearGradient3587-6-5-1-5-2-4"
       gradientUnits="userSpaceOnUse"
       gradientTransform="matrix(0.7071068,0.7071068,-0.7071068,0.7071068,33.62132,-6.43503)" />
    <linearGradient
       id="linearGradient3587-6-5-1-5-2-4">
      <stop
         id="stop3589-9-2-8-5-0-4"
         style="stop-color:#000000;stop-opacity:1"
         offset="0" />
      <stop
         id="stop3591-7-4-3-0-1-0"
         style="stop-color:#646464;stop-opacity:1"
         offset="1" />
    </linearGradient>
  </defs>
  <path
     style="color:#000000;fill:#27303a;fill-opacity:0.75328081999999996;fill-rule:nonzero;stroke:none;stroke-width:2;marker:none;visibility:visible;display:inline;overflow:visible;enable-background:accumulate"
     d="M 1 1 L 1 2 L 1 3 L 2 3 L 2 2 L 3 2 L 3 1 L 2 1 L 1 1 z M 4 1 L 4 2 L 6 2 L 6 1 L 4 1 z M 7 1 L 7 2 L 9 2 L 9 1 L 7 1 z M 10 1 L 10 2 L 12 2 L 12 1 L 10 1 z M 13 1 L 13 2 L 14 2 L 14 3 L 15 3 L 15 2 L 15 1 L 14 1 L 13 1 z M 1 4 L 1 6 L 2 6 L 2 4 L 1 4 z M 14 4 L 14 6 L 15 6 L 15 4 L 14 4 z M 5 5 L 5 11 L 11 11 L 11 5 L 5 5 z M 1 7 L 1 9 L 2 9 L 2 7 L 1 7 z M 14 7 L 14 9 L 15 9 L 15 7 L 14 7 z M 1 10 L 1 12 L 2 12 L 2 10 L 1 10 z M 14 10 L 14 12 L 15 12 L 15 10 L 14 10 z M 1 13 L 1 15 L 2 15 L 3 15 L 3 14 L 2 14 L 2 13 L 1 13 z M 14 13 L 14 14 L 13 14 L 13 15 L 14 15 L 15 15 L 15 14 L 15 13 L 14 13 z M 4 14 L 4 15 L 6 15 L 6 14 L 4 14 z M 7 14 L 7 15 L 9 15 L 9 14 L 7 14 z M 10 14 L 10 15 L 12 15 L 12 14 L 10 14 z "
     id="rect3062" />
  <path
     style="color:#000000;fill:#f1f3f5;fill-opacity:0.90288714000000003;fill-rule:nonzero;stroke:none;stroke-width:2;marker:none;visibility:visible;display:inline;overflow:visible;enable-background:accumulate"
     d="M 1 0 L 1 1 L 3 1 L 3 0 L 1 0 z M 1 1 L 0 1 L 0 3 L 1 3 L 1 1 z M 4 0 L 4 1 L 6 1 L 6 0 L 4 0 z M 7 0 L 7 1 L 9 1 L 9 0 L 7 0 z M 10 0 L 10 1 L 12 1 L 12 0 L 10 0 z M 13 0 L 13 1 L 15 1 L 15 0 L 13 0 z M 15 1 L 15 3 L 16 3 L 16 1 L 15 1 z M 0 4 L 0 6 L 1 6 L 1 4 L 0 4 z M 4 4 L 4 12 L 12 12 L 12 4 L 4 4 z M 15 4 L 15 6 L 16 6 L 16 4 L 15 4 z M 5 5 L 11 5 L 11 11 L 5 11 L 5 5 z M 0 7 L 0 9 L 1 9 L 1 7 L 0 7 z M 15 7 L 15 9 L 16 9 L 16 7 L 15 7 z M 0 10 L 0 12 L 1 12 L 1 10 L 0 10 z M 15 10 L 15 12 L 16 12 L 16 10 L 15 10 z M 0 13 L 0 15 L 1 15 L 1 13 L 0 13 z M 1 15 L 1 16 L 3 16 L 3 15 L 1 15 z M 15 13 L 15 15 L 16 15 L 16 13 L 15 13 z M 15 15 L 13 15 L 13 16 L 15 16 L 15 15 z M 4 15 L 4 16 L 6 16 L 6 15 L 4 15 z M 7 15 L 7 16 L 9 16 L 9 15 L 7 15 z M 10 15 L 10 16 L 12 16 L 12 15 L 10 15 z "
     id="rect3120" />
</svg>
